src/assets/filled/Bag.svg

<svg width="24" height="24" viewBox="0 0 24 24"  xmlns="http://www.w3.org/2000/svg">
<path d="M19.24 5.57957H18.84L15.46 2.19957C15.19 1.92957 14.75 1.92957 14.47 2.19957C14.2 2.46957 14.2 2.90957 14.47 3.18957L16.86 5.57957H7.14L9.53 3.18957C9.8 2.91957 9.8 2.47957 9.53 2.19957C9.26 1.92957 8.82 1.92957 8.54 2.19957L5.17 5.57957H4.77C3.87 5.57957 2 5.57957 2 8.13957C2 9.10957 2.2 9.74957 2.62 10.1696C2.86 10.4196 3.15 10.5496 3.46 10.6196C3.75 10.6896 4.06 10.6996 4.36 10.6996H19.64C19.95 10.6996 20.24 10.6796 20.52 10.6196C21.36 10.4196 22 9.81957 22 8.13957C22 5.57957 20.13 5.57957 19.24 5.57957Z" />
<path d="M19.0499 12H4.86991C4.24991 12 3.77991 12.55 3.87991 13.16L4.71991 18.3C4.99991 20.02 5.74991 22 9.07991 22H14.6899C18.0599 22 18.6599 20.31 19.0199 18.42L20.0299 13.19C20.1499 12.57 19.6799 12 19.0499 12ZM10.6099 18.45C10.6099 18.84 10.2999 19.15 9.91991 19.15C9.52991 19.15 9.21991 18.84 9.21991 18.45V15.15C9.21991 14.77 9.52991 14.45 9.91991 14.45C10.2999 14.45 10.6099 14.77 10.6099 15.15V18.45ZM14.8899 18.45C14.8899 18.84 14.5799 19.15 14.1899 19.15C13.8099 19.15 13.4899 18.84 13.4899 18.45V15.15C13.4899 14.77 13.8099 14.45 14.1899 14.45C14.5799 14.45 14.8899 14.77 14.8899 15.15V18.45Z" />
</svg>

<?xml version="1.0" encoding="UTF-8"?>
<svg width="24" height="24" viewBox="0 0 24 24" xmlns="http://www.w3.org/2000/svg">
 <path d="m19.24 5.5796h-0.4l-3.38-3.38c-0.27-0.27-0.71-0.27-0.99 0-0.27 0.27-0.27 0.71 0 0.99l2.39 2.39h-9.72l2.39-2.39c0.27-0.27 0.27-0.71 0-0.99-0.27-0.27-0.71-0.27-0.99 0l-3.37 3.38h-0.4c-0.9 0-2.77 0-2.77 2.56 0 0.97 0.2 1.61 0.62 2.03 0.24 0.25 0.53 0.38 0.84 0.45 0.29 0.07 0.6 0.08 0.9 0.08h15.28c0.31 0 0.6-0.02 0.88-0.08 0.84-0.2 1.48-0.80003 1.48-2.48 0-2.56-1.87-2.56-2.76-2.56z"/>
 <path d="m19.05 12h-14.18c-0.62 0-1.09 0.55-0.99 1.16l0.84 5.14c0.28 1.72 1.03 3.7 4.36 3.7h5.61c3.37 0 3.97-1.69 4.33-3.58l1.01-5.23c0.12-0.62-0.35-1.19-0.98-1.19zm-8.44 6.45c0 0.39-0.31 0.7-0.68999 0.7-0.39 0-0.7-0.31-0.7-0.7v-3.3c0-0.38 0.31-0.7 0.7-0.7 0.37999 0 0.68999 0.32 0.68999 0.7v3.3zm4.28 0c0 0.39-0.31 0.7-0.7 0.7-0.38 0-0.7-0.31-0.7-0.7v-3.3c0-0.38 0.32-0.7 0.7-0.7 0.39 0 0.7 0.32 0.7 0.7v3.3z"/>
</svg>
